packages/core/src/svgs/gai.svg

<svg width="24" height="24" viewBox="0 0 24 24" fill="none" xmlns="http://www.w3.org/2000/svg">
<g clip-path="url(#clip0_31_10600)">
<path d="M0 0H24V24H0V0Z" fill="#F0F3FA"/>
<path fill-rule="evenodd" clip-rule="evenodd" d="M13.0799 18.4974C13.0747 18.452 13.0601 18.4082 13.0371 18.3688L12.0556 16.6288C12.0141 16.554 11.9448 16.4986 11.8628 16.4745C11.8015 16.4583 11.7367 16.461 11.677 16.4825C11.6173 16.5039 11.5655 16.543 11.5285 16.5945C11.4897 16.6455 11.4666 16.7067 11.4621 16.7707C11.4575 16.8346 11.4717 16.8985 11.5028 16.9545L12.4799 18.6816C12.5656 18.8274 12.7414 18.8959 12.8956 18.8274C12.9366 18.8086 12.973 18.7812 13.0026 18.7473C13.0322 18.7133 13.0541 18.6734 13.0671 18.6302C13.0799 18.5874 13.0842 18.5445 13.0799 18.4974ZM13.9799 18.3302C14.0057 18.2963 14.0378 18.2679 14.0746 18.2466C14.1114 18.2253 14.1521 18.2114 14.1942 18.2059C14.2358 18.2003 14.2781 18.2031 14.3186 18.2141C14.3591 18.2252 14.397 18.2442 14.4299 18.2702C14.498 18.3225 14.5426 18.3995 14.5542 18.4845C14.5627 18.549 14.5523 18.6145 14.5241 18.6731C14.496 18.7317 14.4513 18.7809 14.3956 18.8145C14.3593 18.8364 14.319 18.8507 14.277 18.8565C14.235 18.8623 14.1922 18.8595 14.1513 18.8482C14.1105 18.837 14.0723 18.8176 14.0391 18.7912C14.006 18.7647 13.9786 18.7318 13.9585 18.6945C13.9265 18.638 13.9118 18.5733 13.9164 18.5085C13.9209 18.4437 13.9445 18.3817 13.9842 18.3302H13.9799ZM14.1599 15.7802C14.1962 15.7596 14.2362 15.7464 14.2776 15.7412C14.319 15.7361 14.3611 15.7392 14.4013 15.7504C14.4415 15.7615 14.4791 15.7805 14.512 15.8062C14.5448 15.8319 14.5723 15.8639 14.5928 15.9002L15.9856 18.3645C16.0083 18.404 16.0226 18.4479 16.0275 18.4932C16.0324 18.5385 16.0279 18.5844 16.0142 18.6279C16.0005 18.6713 15.978 18.7115 15.948 18.7459C15.918 18.7802 15.8812 18.8079 15.8399 18.8274C15.6899 18.8959 15.5099 18.8274 15.4242 18.6774L14.0399 16.2259C13.9977 16.1507 13.9866 16.0619 14.009 15.9786C14.0315 15.8953 14.0856 15.8241 14.1599 15.7802ZM8.08707 18.3302C8.11279 18.2963 8.14498 18.2679 8.18176 18.2466C8.21854 18.2253 8.2592 18.2114 8.30136 18.2059C8.36384 18.1985 8.42711 18.21 8.48292 18.2391C8.53874 18.2681 8.58449 18.3133 8.61422 18.3688C8.65682 18.4435 8.66856 18.5319 8.64695 18.6152C8.62534 18.6984 8.57207 18.7699 8.4985 18.8145C8.46219 18.8364 8.42181 18.8507 8.37982 18.8565C8.33782 18.8623 8.29508 18.8595 8.2542 18.8482C8.21332 18.837 8.17514 18.8176 8.14199 18.7912C8.10884 18.7647 8.08141 18.7318 8.06136 18.6945C8.02931 18.638 8.01466 18.5733 8.01923 18.5085C8.02381 18.4437 8.04741 18.3817 8.08707 18.3302ZM11.1042 17.6016C11.1385 17.6316 11.1685 17.6616 11.1899 17.7002L11.5542 18.3516C11.6399 18.5016 11.6099 18.6945 11.4685 18.7931C11.4323 18.8186 11.3912 18.8362 11.3478 18.8449C11.3044 18.8535 11.2596 18.853 11.2164 18.8433C11.1732 18.8336 11.1325 18.815 11.097 18.7886C11.0614 18.7622 11.0318 18.7287 11.0099 18.6902L10.6371 18.0259C10.5945 17.9512 10.5827 17.8628 10.6043 17.7795C10.626 17.6963 10.6792 17.6248 10.7528 17.5802C10.8072 17.5487 10.8698 17.5343 10.9325 17.5389C10.9952 17.5435 11.055 17.5668 11.1042 17.6059V17.6016ZM17.2842 12.8788C17.3185 12.9045 17.3442 12.9388 17.3699 12.9731L18.1971 14.4474C18.2198 14.4869 18.234 14.5307 18.2389 14.576C18.2439 14.6214 18.2393 14.6672 18.2256 14.7107C18.2119 14.7542 18.1894 14.7944 18.1594 14.8287C18.1294 14.863 18.0926 14.8908 18.0514 14.9102C17.9014 14.9788 17.7214 14.9102 17.6356 14.7602L16.8128 13.3031C16.7688 13.228 16.7564 13.1385 16.778 13.0542C16.7997 12.97 16.8538 12.8977 16.9285 12.8531C16.9834 12.8206 17.0468 12.8057 17.1104 12.8103C17.174 12.8149 17.2346 12.8388 17.2842 12.8788ZM19.5899 11.7388C19.6564 11.7918 19.6994 11.8687 19.7099 11.9531C19.718 12.0164 19.7078 12.0808 19.6804 12.1385C19.6531 12.1962 19.6098 12.2449 19.5556 12.2788C19.5193 12.3007 19.479 12.3149 19.437 12.3207C19.395 12.3265 19.3522 12.3237 19.3113 12.3125C19.2705 12.3013 19.2323 12.2819 19.1991 12.2555C19.166 12.229 19.1386 12.1961 19.1185 12.1588C19.0759 12.0841 19.0642 11.9957 19.0858 11.9124C19.1074 11.8292 19.1606 11.7576 19.2342 11.7131C19.2891 11.6806 19.3525 11.6657 19.4161 11.6703C19.4797 11.6749 19.5403 11.6988 19.5899 11.7388ZM17.6099 9.48878C17.5242 9.34307 17.3485 9.27449 17.1942 9.34307L17.2028 9.34735C17.162 9.36638 17.1257 9.39376 17.0961 9.42772C17.0666 9.46168 17.0445 9.50146 17.0314 9.5445C17.0172 9.58818 17.0121 9.63431 17.0165 9.68003C17.021 9.72575 17.0348 9.77006 17.0571 9.81021L18.9342 13.1359C19.0199 13.2859 18.9856 13.4788 18.8485 13.5774C18.8123 13.6029 18.7712 13.6205 18.7278 13.6291C18.6844 13.6378 18.6396 13.6372 18.5964 13.6276C18.5532 13.6179 18.5125 13.5992 18.477 13.5729C18.4414 13.5465 18.4118 13.513 18.3899 13.4745L16.1099 9.43735C16.0242 9.28735 15.8485 9.22307 15.6942 9.29164C15.6534 9.31067 15.6171 9.33805 15.5876 9.37201C15.558 9.40597 15.536 9.44575 15.5228 9.48878C15.5092 9.53183 15.5045 9.5772 15.5089 9.62213C15.5133 9.66706 15.5268 9.71063 15.5485 9.75021L16.8342 12.0302C16.8563 12.0693 16.8703 12.1125 16.8751 12.1572C16.8799 12.2019 16.8756 12.247 16.8624 12.29C16.8491 12.3329 16.8272 12.3727 16.7981 12.4069C16.7689 12.4411 16.7331 12.4689 16.6928 12.4888C16.5385 12.5616 16.3585 12.4888 16.2771 12.3431L15.9899 11.8416C15.9085 11.6916 15.7285 11.6231 15.5785 11.6959C15.5377 11.715 15.5014 11.7423 15.4719 11.7763C15.4423 11.8103 15.4203 11.85 15.4071 11.8931C15.3935 11.9361 15.3888 11.9815 15.3932 12.0264C15.3976 12.0713 15.4111 12.1149 15.4328 12.1545L16.4056 13.8816C16.4276 13.921 16.4413 13.9645 16.4458 14.0093C16.4504 14.0542 16.4457 14.0995 16.432 14.1425C16.4184 14.1854 16.3961 14.2251 16.3665 14.2592C16.3369 14.2932 16.3006 14.3208 16.2599 14.3402C16.1099 14.4088 15.9299 14.3402 15.8442 14.1945L14.6271 12.0345C14.605 11.9949 14.575 11.9604 14.5388 11.9331C14.5026 11.9058 14.4612 11.8863 14.4171 11.8759C14.3727 11.866 14.3268 11.8658 14.2824 11.8754C14.238 11.8851 14.1962 11.9042 14.1599 11.9316C14.0314 12.0302 13.9971 12.2231 14.0785 12.3731L14.8285 13.7016C14.8711 13.7764 14.8828 13.8648 14.8612 13.948C14.8396 14.0313 14.7864 14.1028 14.7128 14.1474C14.6765 14.1692 14.6361 14.1835 14.5941 14.1893C14.5521 14.1951 14.5094 14.1923 14.4685 14.1811C14.4276 14.1699 14.3894 14.1505 14.3563 14.124C14.3231 14.0976 14.2957 14.0647 14.2756 14.0274L14.0914 13.6974C14.0689 13.6586 14.0386 13.6248 14.0025 13.5983C13.9663 13.5717 13.9251 13.5529 13.8814 13.5431C13.8373 13.5325 13.7915 13.5317 13.7471 13.5405C13.7027 13.5494 13.6608 13.5678 13.6242 13.5945C13.4956 13.6931 13.4614 13.8902 13.5428 14.0359L14.0614 14.9531C14.0841 14.9926 14.0983 15.0364 14.1032 15.0818C14.1081 15.1271 14.1036 15.1729 14.0899 15.2164C14.0762 15.2599 14.0537 15.3001 14.0237 15.3344C13.9937 15.3688 13.9569 15.3965 13.9156 15.4159C13.7656 15.4845 13.5856 15.4159 13.5042 15.2659L13.2771 14.8716C13.255 14.8333 13.2255 14.7999 13.1901 14.7733C13.1547 14.7468 13.1143 14.7278 13.0714 14.7174C13.0273 14.7068 12.9815 14.7059 12.9371 14.7148C12.8927 14.7237 12.8508 14.7421 12.8142 14.7688C12.6814 14.8674 12.6514 15.0645 12.7328 15.2102L13.9842 17.4259C14.0062 17.4653 14.0199 17.5087 14.0244 17.5536C14.029 17.5985 14.0242 17.6438 14.0106 17.6867C13.9969 17.7297 13.9746 17.7694 13.945 17.8034C13.9154 17.8375 13.8792 17.865 13.8385 17.8845C13.6842 17.9574 13.5042 17.8845 13.4228 17.7388L11.1471 13.7145C11.0614 13.5645 10.8856 13.4916 10.7314 13.5645C10.6904 13.5833 10.654 13.6106 10.6244 13.6446C10.5948 13.6786 10.5729 13.7185 10.5599 13.7616C10.5463 13.8047 10.5416 13.8501 10.546 13.895C10.5505 13.9399 10.5639 13.9835 10.5856 14.0231L11.5285 15.6859C11.5512 15.7255 11.5654 15.7693 11.5704 15.8146C11.5753 15.8599 11.5707 15.9058 11.5571 15.9493C11.5434 15.9928 11.5208 16.0329 11.4908 16.0673C11.4608 16.1016 11.424 16.1294 11.3828 16.1488C11.2285 16.2174 11.0485 16.1488 10.9671 15.9988L10.3285 14.8716C10.3065 14.8333 10.2769 14.7999 10.2415 14.7733C10.2061 14.7468 10.1658 14.7278 10.1228 14.7174C10.0788 14.7068 10.033 14.7059 9.98857 14.7148C9.94417 14.7237 9.90223 14.7421 9.86564 14.7688C9.73279 14.8674 9.70279 15.0645 9.78422 15.2102L10.6542 16.7531C10.6769 16.7926 10.6912 16.8364 10.6961 16.8818C10.701 16.9271 10.6965 16.9729 10.6828 17.0164C10.6691 17.0599 10.6465 17.1001 10.6165 17.1344C10.5865 17.1688 10.5498 17.1965 10.5085 17.2159C10.3585 17.2845 10.1785 17.2159 10.0971 17.0659L8.18993 13.6931C8.16791 13.6547 8.13831 13.6213 8.10294 13.5948C8.06758 13.5682 8.02718 13.5492 7.98422 13.5388C7.94019 13.5282 7.89439 13.5274 7.85 13.5363C7.8056 13.5451 7.76366 13.5635 7.72707 13.5902C7.59422 13.6931 7.55993 13.8859 7.64136 14.0316L10.0928 18.3688C10.1155 18.4083 10.1297 18.4521 10.1347 18.4975C10.1396 18.5428 10.135 18.5886 10.1213 18.6321C10.1077 18.6756 10.0851 18.7158 10.0551 18.7501C10.0251 18.7845 9.98833 18.8122 9.94707 18.8316C9.79707 18.9002 9.61707 18.8316 9.53136 18.6816L7.82564 15.6559C7.80268 15.6167 7.77174 15.5827 7.73484 15.5561C7.69793 15.5295 7.65587 15.511 7.61136 15.5016C7.56863 15.4924 7.52444 15.4922 7.48162 15.501C7.43881 15.5099 7.39833 15.5276 7.36279 15.5531C7.22564 15.6516 7.19136 15.8488 7.27707 15.9945L8.08707 17.4259C8.10977 17.4655 8.12402 17.5093 8.12894 17.5546C8.13385 17.5999 8.12932 17.6458 8.11563 17.6893C8.10194 17.7328 8.07938 17.7729 8.04939 17.8073C8.0194 17.8416 7.98261 17.8694 7.94136 17.8888C7.78707 17.9574 7.60707 17.8888 7.52564 17.7431L4.28564 12.0002L8.15564 5.14307H15.8956L19.1399 10.8945C19.1626 10.934 19.1769 10.9779 19.1818 11.0232C19.1867 11.0685 19.1822 11.1144 19.1685 11.1578C19.1548 11.2013 19.1322 11.2415 19.1022 11.2759C19.0723 11.3102 19.0355 11.3379 18.9942 11.3574C18.8442 11.4259 18.6642 11.3574 18.5828 11.2074L17.6099 9.49307V9.48878ZM15.3599 14.6445L16.1914 16.1145C16.2133 16.1539 16.227 16.1973 16.2316 16.2422C16.2361 16.287 16.2314 16.3323 16.2177 16.3753C16.2041 16.4183 16.1818 16.458 16.1522 16.492C16.1226 16.526 16.0863 16.5536 16.0456 16.5731C15.8914 16.6459 15.7156 16.5731 15.6299 16.4274L14.8071 14.9702C14.7648 14.895 14.7538 14.8062 14.7762 14.7229C14.7986 14.6396 14.8528 14.5684 14.9271 14.5245C14.9632 14.5033 15.0032 14.4896 15.0448 14.4842C15.0863 14.4787 15.1285 14.4817 15.1689 14.4929C15.2093 14.5041 15.247 14.5233 15.2798 14.5493C15.3126 14.5754 15.3399 14.6077 15.3599 14.6445ZM16.8556 14.7302C16.8856 14.7559 16.9156 14.7859 16.9371 14.8245L17.4514 15.7416C17.5371 15.8874 17.5071 16.0845 17.3699 16.1831C17.3336 16.2093 17.2922 16.2275 17.2483 16.2366C17.2044 16.2457 17.1591 16.2453 17.1154 16.2356C17.0717 16.2259 17.0305 16.207 16.9946 16.1802C16.9587 16.1534 16.9289 16.1194 16.9071 16.0802L16.3842 15.1502C16.3416 15.0755 16.3299 14.9871 16.3515 14.9038C16.3731 14.8206 16.4264 14.7491 16.4999 14.7045C16.5548 14.672 16.6182 14.6571 16.6818 14.6617C16.7454 14.6663 16.806 14.6902 16.8556 14.7302ZM16.1914 17.0231C16.2167 16.9884 16.2487 16.9592 16.2855 16.9371C16.3223 16.915 16.3632 16.9005 16.4056 16.8945C16.4688 16.8861 16.533 16.8972 16.5897 16.9263C16.6464 16.9554 16.6928 17.0011 16.7228 17.0574C16.7654 17.1321 16.7771 17.2205 16.7555 17.3037C16.7339 17.387 16.6806 17.4585 16.6071 17.5031C16.5708 17.5249 16.5304 17.5392 16.4884 17.545C16.4464 17.5508 16.4037 17.548 16.3628 17.5368C16.3219 17.5256 16.2837 17.5062 16.2506 17.4797C16.2174 17.4533 16.19 17.4204 16.1699 17.3831C16.1382 17.3275 16.1233 17.2638 16.1271 17.1999C16.1309 17.136 16.1532 17.0745 16.1914 17.0231ZM10.6114 9.85735L11.3399 8.57164H13.4271L11.7771 11.5716H5.5285L8.65279 6.00021H14.9014L13.9156 7.7145H9.86136L8.72993 9.85735H10.6114Z" fill="url(#paint0_linear_31_10600)"/>
</g>
<defs>
<linearGradient id="paint0_linear_31_10600" x1="8.15564" y1="5.14307" x2="16.1356" y2="18.6559" gradientUnits="userSpaceOnUse">
<stop offset="0.2" stop-color="#EE3285"/>
<stop offset="0.9" stop-color="#8D3C97"/>
</linearGradient>
<clipPath id="clip0_31_10600">
<rect width="24" height="24" fill="white"/>
</clipPath>
</defs>
</svg>

<svg xmlns="http://www.w3.org/2000/svg" width="24" height="24" fill="none" viewBox="0 0 24 24"><g clip-path="url(#a)"><path fill="#F0F3FA" d="M0 0h24v24H0z"/><path fill="url(#b)" fill-rule="evenodd" d="M13.08 18.497a.3.3 0 0 0-.043-.128l-.981-1.74a.33.33 0 0 0-.193-.155.31.31 0 0 0-.335.12.33.33 0 0 0-.025.36l.977 1.728c.086.145.261.214.416.145a.32.32 0 0 0 .171-.197q.02-.063.013-.133m.9-.167a.321.321 0 0 1 .574.155.334.334 0 0 1-.277.372.31.31 0 0 1-.318-.162.33.33 0 0 1 .025-.365zm.18-2.55a.32.32 0 0 1 .433.12l1.393 2.464a.33.33 0 0 1-.146.463c-.15.069-.33 0-.416-.15l-1.384-2.451a.33.33 0 0 1 .12-.446m-6.073 2.55a.32.32 0 0 1 .214-.124.31.31 0 0 1 .313.163.33.33 0 0 1-.234.488.31.31 0 0 1-.319-.162.33.33 0 0 1 .026-.365m3.017-.728q.053.043.086.098l.364.652c.086.15.056.343-.085.441a.32.32 0 0 1-.46-.103l-.372-.664a.33.33 0 0 1 .116-.446.31.31 0 0 1 .351.026zm6.18-4.723c.035.026.06.06.086.094l.827 1.474a.33.33 0 0 1-.146.463c-.15.069-.33 0-.415-.15l-.823-1.457a.33.33 0 0 1 .116-.45.31.31 0 0 1 .355.026m2.306-1.14a.334.334 0 0 1-.034.54.31.31 0 0 1-.437-.12.33.33 0 0 1 .115-.446.31.31 0 0 1 .356.026m-1.98-2.25a.33.33 0 0 0-.416-.146l.009.004a.32.32 0 0 0-.172.197.34.34 0 0 0 .026.266l1.877 3.326a.34.34 0 0 1-.085.441.316.316 0 0 1-.46-.102l-2.28-4.038a.325.325 0 0 0-.415-.145.32.32 0 0 0-.171.197.33.33 0 0 0 .026.261l1.285 2.28a.33.33 0 0 1-.141.459c-.155.073-.335 0-.416-.146l-.287-.501c-.082-.15-.261-.219-.412-.146a.32.32 0 0 0-.17.197.33.33 0 0 0 .025.261l.973 1.728a.33.33 0 0 1-.146.458c-.15.069-.33 0-.416-.146l-1.217-2.16a.33.33 0 0 0-.21-.158.31.31 0 0 0-.257.056.35.35 0 0 0-.082.441l.75 1.329a.33.33 0 0 1-.115.445.314.314 0 0 1-.437-.12l-.185-.33a.326.326 0 0 0-.467-.102.35.35 0 0 0-.081.44l.518.918a.33.33 0 0 1-.145.463c-.15.069-.33 0-.412-.15l-.227-.394a.33.33 0 0 0-.206-.155.31.31 0 0 0-.257.052c-.133.098-.163.296-.081.441l1.251 2.216a.33.33 0 0 1-.146.459c-.154.072-.334 0-.415-.146l-2.276-4.025c-.086-.15-.261-.222-.416-.15a.32.32 0 0 0-.171.198.34.34 0 0 0 .026.261l.942 1.663a.33.33 0 0 1-.037.381.3.3 0 0 1-.108.082.326.326 0 0 1-.416-.15l-.639-1.127a.33.33 0 0 0-.205-.155.31.31 0 0 0-.257.052c-.133.098-.163.296-.082.441l.87 1.543a.33.33 0 0 1-.146.463c-.15.069-.33 0-.41-.15L8.19 13.693a.325.325 0 0 0-.34-.157.3.3 0 0 0-.123.054.35.35 0 0 0-.086.442l2.452 4.337a.33.33 0 0 1-.146.463c-.15.068-.33 0-.416-.15l-1.705-3.026a.33.33 0 0 0-.344-.155.3.3 0 0 0-.12.052.34.34 0 0 0-.085.441l.81 1.432a.33.33 0 0 1-.146.463.33.33 0 0 1-.415-.146L4.286 12l3.87-6.857h7.74l3.244 5.752a.33.33 0 0 1-.146.462c-.15.069-.33 0-.411-.15l-.973-1.714zm-2.25 5.156.831 1.47a.33.33 0 0 1-.039.377.3.3 0 0 1-.106.081c-.155.073-.33 0-.416-.146l-.823-1.457a.33.33 0 0 1 .238-.486.31.31 0 0 1 .315.16m1.496.085a.4.4 0 0 1 .081.095l.514.917c.086.145.056.342-.081.441a.32.32 0 0 1-.463-.103l-.523-.93a.33.33 0 0 1 .116-.446.31.31 0 0 1 .356.026m-.665 2.293a.32.32 0 0 1 .215-.128.31.31 0 0 1 .317.162.33.33 0 0 1-.235.488.31.31 0 0 1-.318-.162.33.33 0 0 1 .021-.36m-5.58-7.166.729-1.285h2.087l-1.65 3H5.53L8.653 6H14.9l-.985 1.715H9.86L8.73 9.857z" clip-rule="evenodd"/></g><defs><linearGradient id="b" x1="8.156" x2="16.136" y1="5.143" y2="18.656" gradientUnits="userSpaceOnUse"><stop offset=".2" stop-color="#EE3285"/><stop offset=".9" stop-color="#8D3C97"/></linearGradient><clipPath id="a"><path fill="#fff" d="M0 0h24v24H0z"/></clipPath></defs></svg>
